X:1
T:News Boys' -- Hornpipe
R:hornpipe
B:Cole's 1000 Fiddle Tunes
M:C|
L:1/8
K:F
(ucB)|Acfa gbeg|fafc AcAF|DFdc BAGF|E2G2G2(cB)|
Acfa gbeg|fafc AcAF|DdcB AGFE|F2F2F2:|
|:(ucA)|BAGF EGcB|Acfc afcA|BAGF EdcB|Acfc afcA|
dgba gfed|cfag fedc|dBfd cBAG|F2F2F2:|
